brandFactory_export/3.Masa/Proyectos _3Masa.svg

<?xml version="1.0" encoding="UTF-8"?>
<svg width="24px" height="24px" viewBox="0 0 24 24" version="1.1" xmlns="http://www.w3.org/2000/svg" xmlns:xlink="http://www.w3.org/1999/xlink">
    <title>3.Masa/Proyectos _3Masa</title>
    <g id="Symbols" stroke="none" stroke-width="1" fill="none" fill-rule="evenodd">
        <g id="3.Masa/Proyectos-_3Masa" fill="#5CB615" fill-rule="nonzero">
            <path d="M19.0537815,9.51596639 C18.4151261,9.51596639 17.8806723,9.32436975 17.507563,8.95798319 C17.1378151,8.60168067 16.9462185,8.0907563 16.9462185,7.48907563 L16.9462185,6.12436975 L20.4352941,9.51596639 L19.0537815,9.51596639 Z M13.994958,3.95630252 L9.19831933,3.95630252 C8.37815126,3.95630252 7.66218487,4.66554622 7.66218487,5.47226891 L7.66218487,17.4655462 L2.5092437,17.4857143 L2.51260504,1.5092437 L13.994958,1.48907563 L13.994958,3.95630252 Z M22.6067227,9.71428571 C22.5629542,9.55154544 22.4771746,9.40316997 22.3579832,9.28403361 L17.1680672,4.24201681 C16.9798319,4.05714286 16.7243697,3.95630252 16.4621849,3.95630252 L15.497479,3.95630252 L15.497479,1.48907563 C15.497479,0.682352941 14.8084034,0 13.9915966,0 L2.51596639,0 C1.69915966,0 1.01008403,0.682352941 1.01008403,1.48907563 L1.01008403,17.4857143 C1.01008403,18.2756303 1.71260504,18.9714286 2.51260504,18.9714286 L7.66218487,18.9714286 L7.66218487,22.107563 C7.66218487,22.9310924 8.36470588,23.6235294 9.19831933,23.6235294 L21.1310924,23.6235294 C21.9647059,23.6235294 22.6638655,22.9310924 22.6638655,22.107563 L22.6638655,10.010084 C22.6638655,9.9092437 22.6436975,9.80840336 22.6067227,9.71428571 Z" id="Proyectos-_3Masa"></path>
        </g>
    </g>
</svg>

<svg width="24" height="24" viewBox="0 0 24 24" xmlns="http://www.w3.org/2000/svg"><path d="M19.054 9.516c-.639 0-1.173-.192-1.546-.558-.37-.356-.562-.867-.562-1.469V6.124l3.49 3.392h-1.382zm-5.059-5.56H9.198c-.82 0-1.536.71-1.536 1.516v11.994l-5.153.02.004-15.977 11.482-.02v2.467zm8.612 5.758a.961.961 0 00-.249-.43l-5.19-5.042a1.008 1.008 0 00-.706-.286h-.965V1.49C15.497.682 14.808 0 13.992 0H2.516C1.699 0 1.01.682 1.01 1.49v15.996c0 .79.703 1.485 1.503 1.485h5.15v3.137c0 .823.702 1.516 1.535 1.516h11.933c.834 0 1.533-.693 1.533-1.516V10.01c0-.1-.02-.202-.057-.296z" fill="#5CB615" fill-rule="nonzero"/></svg>
